svgs/styx_browser.svg

<svg xmlns="http://www.w3.org/2000/svg" viewBox="0 0 192 192"><path d="M82.185 175.234c-30.475-5.782-53.119-25.903-63.027-56.004-4.17-12.669-4.196-34.066-.056-46.425 9.251-27.617 26.241-44.598 53.743-53.712 12.441-4.124 33.895-4.124 46.337 0 27.358 9.067 44.707 26.392 53.694 53.623 4.138 12.535 4.149 33.961.024 46.406-8.942 26.98-26.518 44.702-53.028 53.468-9.139 3.021-28.528 4.381-37.687 2.644Zm30.626-4.446c9.215-1.952 24.688-8.808 24.688-10.938 0-.707-1.621-3.347-3.603-5.867-6.059-7.702-11.765-18.715-10.2-19.683.77-.475 1.537-.666 1.705-.424.168.242 2.623 4.4 5.454 9.24 2.832 4.84 6.502 10.064 8.155 11.608l3.007 2.807 5.805-5.321c6.613-6.062 8.956-11.876 11.222-27.842 1.567-11.037 1.347-11.97-5.789-24.604-3.64-6.446-4.067-11.528-1.208-14.387 3.544-3.544 7.374-2.306 14.305 4.624l6.601 6.601-.87-8.623c-1.671-16.565-9.271-32.83-20.917-44.769-6.84-7.012-9.895-9.048-9.895-6.594 0 2.076-7.524 5.299-12.369 5.299-6.011 0-11.569 1.87-13.636 4.587-1.937 2.545-.475 6.384 5.317 13.971 3.515 4.603 4.386 6.797 4.091 10.302-.359 4.271-.851 4.688-11.912 10.112-6.346 3.112-12.711 6.735-14.143 8.052-6.692 6.152.387 21.101 12.855 27.149 6.926 3.359 11.821 9.717 10.378 13.479-.646 1.684-1.469 1.033-3.948-3.125-2.212-3.709-4.829-6.003-8.911-7.808-6.686-2.958-9.539-5.894-13.733-14.133-6.196-12.173-2.558-18.67 14.594-26.061 13.254-5.713 14.151-7.052 9.342-13.953-7.327-10.512-8.084-11.935-8.09-15.204-.013-6.146 3.427-8.537 14.883-10.346 9.883-1.561 13.302-3.349 12.334-6.45-.741-2.376-16.614-9.445-25.372-11.3-26.195-5.549-51.569 1.668-70.238 19.976l-8.929 8.756 14.793 1.52c20.384 2.093 23.196 2.745 25.4 5.892 1.057 1.509 1.922 4.626 1.922 6.927 0 4.704-3.109 11.6-5.23 11.6-2.956 0-25.003 11.269-25.725 13.149-1.089 2.839 1.919 9.343 5.365 11.601 1.617 1.059 7.245 2.409 12.508 2.999 5.263.59 10.359 1.729 11.325 2.531 4.111 3.411.651 12.771-8.327 22.521-9.783 10.626-11.481 14.027-11.702 23.449l-.2 8.545 8.248 4.149c14.803 7.448 33.384 9.644 50.65 5.986Zm-38.078-19.041c-1.433-1.822-2.606-4.669-2.606-6.326 0-6.95 6.686-16.762 11.421-16.762 4.064 0 8.694 5.56 8.694 10.441 0 13.129-10.923 21.019-17.509 12.647Zm12.062-5.169c1.429-3.42 1.67-5.915.879-9.114-1.435-5.804-5.039-5.858-8.897-.133-4.842 7.186-3.342 13.957 3.095 13.957 2.226 0 3.441-1.162 4.923-4.71Zm-36.312 3.767c-.163-7.459 2.406-12.549 11.261-22.315 7.897-8.708 10.696-13.501 10.145-17.371-.351-2.465-1.367-2.822-10.03-3.527-11.37-.924-15.816-3.489-19.251-11.107-3.577-7.932-1.539-10.486 14.433-18.086 7.261-3.455 13.616-6.892 14.124-7.638.508-.746.932-3.507.943-6.135.017-4.22-.463-4.98-4.107-6.503-2.27-.948-11.527-2.126-20.572-2.618l-16.446-.894-3.153 6.768c-6.589 14.144-7.857 19.804-7.857 35.054 0 16.088 1.492 22.117 9.114 36.812 4.232 8.16 17.429 23.532 20.202 23.532.76 0 1.268-2.546 1.194-5.972Zm114.899-21.404c2.833-6.286 5.731-16.133 6.558-22.282.633-4.713.249-5.49-6.111-12.366-4.497-4.863-7.557-7.181-9.072-6.873-3.727.759-2.712 8.575 2.086 16.051 4.022 6.269 4.088 6.603 3.576 18.301-.287 6.554-.212 11.901.166 11.883.377-.018 1.636-2.139 2.797-4.714Z" stroke="#000" stroke-width="2"/></svg>

<svg
    xmlns="http://www.w3.org/2000/svg"
    viewBox="0 0 192 192"
    id="vector">
    <path
        id="path"
        d="M 82.185 175.234 C 51.71 169.452 29.066 149.331 19.158 119.23 C 14.988 106.561 14.962 85.164 19.102 72.805 C 28.353 45.188 45.343 28.207 72.845 19.093 C 85.286 14.969 106.74 14.969 119.182 19.093 C 146.54 28.16 163.889 45.485 172.876 72.716 C 177.014 85.251 177.025 106.677 172.9 119.122 C 163.958 146.102 146.382 163.824 119.872 172.59 C 110.733 175.611 91.344 176.971 82.185 175.234 Z M 112.811 170.788 C 122.026 168.836 137.499 161.98 137.499 159.85 C 137.499 159.143 135.878 156.503 133.896 153.983 C 127.837 146.281 122.131 135.268 123.696 134.3 C 124.466 133.825 125.233 133.634 125.401 133.876 C 125.569 134.118 128.024 138.276 130.855 143.116 C 133.687 147.956 137.357 153.18 139.01 154.724 L 142.017 157.531 L 147.822 152.21 C 154.435 146.148 156.778 140.334 159.044 124.368 C 160.611 113.331 160.391 112.398 153.255 99.764 C 149.615 93.318 149.188 88.236 152.047 85.377 C 155.591 81.833 159.421 83.071 166.352 90.001 L 172.953 96.602 L 172.083 87.979 C 170.412 71.414 162.812 55.149 151.166 43.21 C 144.326 36.198 141.271 34.162 141.271 36.616 C 141.271 38.692 133.747 41.915 128.902 41.915 C 122.891 41.915 117.333 43.785 115.266 46.502 C 113.329 49.047 114.791 52.886 120.583 60.473 C 124.098 65.076 124.969 67.27 124.674 70.775 C 124.315 75.046 123.823 75.463 112.762 80.887 C 106.416 83.999 100.051 87.622 98.619 88.939 C 91.927 95.091 99.006 110.04 111.474 116.088 C 118.4 119.447 123.295 125.805 121.852 129.567 C 121.206 131.251 120.383 130.6 117.904 126.442 C 115.692 122.733 113.075 120.439 108.993 118.634 C 102.307 115.676 99.454 112.74 95.26 104.501 C 89.064 92.328 92.702 85.831 109.854 78.44 C 123.108 72.727 124.005 71.388 119.196 64.487 C 111.869 53.975 111.112 52.552 111.106 49.283 C 111.093 43.137 114.533 40.746 125.989 38.937 C 135.872 37.376 139.291 35.588 138.323 32.487 C 137.582 30.111 121.709 23.042 112.951 21.187 C 86.756 15.638 61.382 22.855 42.713 41.163 L 33.784 49.919 L 48.577 51.439 C 68.961 53.532 71.773 54.184 73.977 57.331 C 75.034 58.84 75.899 61.957 75.899 64.258 C 75.899 68.962 72.79 75.858 70.669 75.858 C 67.713 75.858 45.666 87.127 44.944 89.007 C 43.855 91.846 46.863 98.35 50.309 100.608 C 51.926 101.667 57.554 103.017 62.817 103.607 C 68.08 104.197 73.176 105.336 74.142 106.138 C 78.253 109.549 74.793 118.909 65.815 128.659 C 56.032 139.285 54.334 142.686 54.113 152.108 L 53.913 160.653 L 62.161 164.802 C 76.964 172.25 95.545 174.446 112.811 170.788 Z M 74.733 151.747 C 73.3 149.925 72.127 147.078 72.127 145.421 C 72.127 138.471 78.813 128.659 83.548 128.659 C 87.612 128.659 92.242 134.219 92.242 139.1 C 92.242 152.229 81.319 160.119 74.733 151.747 Z M 86.795 146.578 C 88.224 143.158 88.465 140.663 87.674 137.464 C 86.239 131.66 82.635 131.606 78.777 137.331 C 73.935 144.517 75.435 151.288 81.872 151.288 C 84.098 151.288 85.313 150.126 86.795 146.578 Z M 50.483 150.345 C 50.32 142.886 52.889 137.796 61.744 128.03 C 69.641 119.322 72.44 114.529 71.889 110.659 C 71.538 108.194 70.522 107.837 61.859 107.132 C 50.489 106.208 46.043 103.643 42.608 96.025 C 39.031 88.093 41.069 85.539 57.041 77.939 C 64.302 74.484 70.657 71.047 71.165 70.301 C 71.673 69.555 72.097 66.794 72.108 64.166 C 72.125 59.946 71.645 59.186 68.001 57.663 C 65.731 56.715 56.474 55.537 47.429 55.045 L 30.983 54.151 L 27.83 60.919 C 21.241 75.063 19.973 80.723 19.973 95.973 C 19.973 112.061 21.465 118.09 29.087 132.785 C 33.319 140.945 46.516 156.317 49.289 156.317 C 50.049 156.317 50.557 153.771 50.483 150.345 Z M 165.382 128.941 C 168.215 122.655 171.113 112.808 171.94 106.659 C 172.573 101.946 172.189 101.169 165.829 94.293 C 161.332 89.43 158.272 87.112 156.757 87.42 C 153.03 88.179 154.045 95.995 158.843 103.471 C 162.865 109.74 162.931 110.074 162.419 121.772 C 162.132 128.326 162.207 133.673 162.585 133.655 C 162.962 133.637 164.221 131.516 165.382 128.941 Z"
        fill="#000000"
        stroke="#000000"
        stroke-width="2"/>
</svg>
